assets/svg/1f3da.svg

<svg xmlns="http://www.w3.org/2000/svg" viewBox="0 0 64 64" enable-background="new 0 0 64 64"><g fill="#94989b"><path d="m0 60h64v4h-64z"/><path d="m44 15v45h17l-4-23 4-22z"/></g><path fill="#d0d0d0" d="m50 16l-24-12-20 20 3 8-4 28h44l-4-13z"/><path fill="#c94747" d="m63.05 14.434l-25.05-14.434h-12l24 17.998 12 .002c.695 0 1.375-.315 1.746-.956.525-.911.211-2.086-.701-2.61"/><path fill="#ed4c5c" d="m51.05 14.435l-25.05-14.435-25.04 26.435c-.912.525-1.227 1.7-.7 2.611.526.91 1.703 1.225 2.614.699l23.13-25.745 23.13 13.745c.912.526 2.088.211 2.615-.699.526-.911.212-2.086-.7-2.611"/><g fill="#3e4347"><path d="m49 44l3.43 16h4.57z"/><path d="M55 39 51 52.08 53.08 55z"/><path d="M13.715 40 24 40 22 51 24 60 13.715 60 12 47z"/><path d="m55.664 32h-4.664l1.34-8h4.66z"/><path d="m24 32h-8l-2-8h8z"/><path d="m30 32h8l2-8h-8z"/></g><path fill="#dbb471" d="m42 36l-4-4 2-8 4 4z"/><g fill="#3e4347"><path d="m40.15 3v2.099h-2.15l6.46 3.941h3.233l4.307 1.96-3.23-4h-3.77z"/><path d="m41 54h-9.82l-2.18-7 2.18-7h9.82l-1.182 5.833z"/></g><g fill="#dbb471"><path d="M11.175 56 10 53.34 24.826 50 26 52.656z"/><path d="M25.489 49 10 46.09 10.512 43 26 45.908z"/></g></svg>

<svg xmlns="http://www.w3.org/2000/svg" width="64" height="64" viewBox="0 0 64 64"><path fill="#94989B" d="M0 60h64v4H0zM44 15v45h17l-4-23 4-22z"/><path fill="#D0D0D0" d="M50 16L26 4 6 24l3 8-4 28h44l-4-13z"/><path fill="#C94747" d="M63.045 14.434L38 0H26l24 17.998L62 18c.695 0 1.375-.315 1.746-.956a1.915 1.915 0 0 0-.701-2.61z"/><path fill="#ED4C5C" d="M51.045 14.435L26 0 .956 26.435a1.914 1.914 0 0 0-.7 2.611 1.92 1.92 0 0 0 2.614.699L26 4l23.13 13.745a1.921 1.921 0 0 0 2.615-.699 1.915 1.915 0 0 0-.7-2.611z"/><path fill="#3E4347" d="M49 44l3.43 16H57z"/><path fill="#3E4347" d="M55 39l-4 13.081L53.082 55zM13.715 40H24l-2 11 2 9H13.715L12 47zM55.664 32H51l1.336-8H57zM24 32h-8l-2-8h8zM30 32h8l2-8h-8z"/><path fill="#DBB471" d="M42 36l-4-4 2-8 4 4z"/><path fill="#3E4347" d="M40.154 3v2.099H38l6.461 3.937h3.232L52 11l-3.23-4H45zM41 54h-9.818L29 47l2.182-7H41l-1.182 5.833z"/><path fill="#DBB471" d="M11.175 56L10 53.343 24.826 50 26 52.656zM25.489 49L10 46.092 10.512 43 26 45.908z"/></svg>
